recipes/tweetdeck/icon.svg

<svg height="80" viewBox="0 0 80 80" width="80" xmlns="http://www.w3.org/2000/svg"><g fill="none" fill-rule="evenodd"><path d="m39.2954322 80 10.3990999-10.4037556h17.9075061c6.0612487 0 11.0271067-4.9637888 11.0271067-11.063318v-47.4670219c0-6.06021416-4.965858-11.0659045-11.0271067-11.0659045h-56.5759661c-6.06073146 0-11.0260721 5.00594899-11.0260721 11.0659045v47.4672805c0 6.0995293 4.96534064 11.063318 11.0260721 11.063318h17.9069888z" fill="#3bace2"/><path d="m41.2954322 19.3706482c.7806115-1.7200352 1.9929129-3.2054731 3.4780922-4.339403l.7829393-.5470488c1.0558171-.6642181 2.2277689-1.1735037 3.4796441-1.4468988.8194092-.1955408 1.6802028-.3127101 2.5399617-.3127101h.157519.0799235c3.1271015.0398323 5.9802907 1.4078423 7.9747555 3.5585329l1.4073251-.3137448.2353732-.0778542c1.8377218-.5072164 3.6343179-1.1729864 5.2780508-2.0332626-.8214784 2.4248616-2.4631421 4.496146-4.5758109 5.8662252l-.0778542.0382805h.0778542.1585537c2.2277688 0 4.3383684-.6647354 6.1378097-1.8374632-1.1347059 1.6807201-2.4248616 3.1658994-3.8707258 4.5354612-.5871398.5866225-1.2115255 1.133154-1.8772955 1.6419223l.0382805 1.6429569c0 17.0079148-13.3316952 30.9264911-30.1060473 31.827893h-3.5580156c-5.4347939-.2749469-10.4790234-1.9166106-14.8582588-4.6164192 5.9438208 0 11.4564689-1.9145414 15.9531323-5.1619161-4.8476541-.3890124-8.9537531-3.5150794-10.713362-7.8575862l2.3850292.1182039 2.8547411-.157519c-2.4631421-.7032746-4.6133154-2.150432-6.2166985-4.0662666-1.6817547-2.0322281-2.7370545-4.5729658-2.9325954-7.3498526 1.3297295.5866225 2.658683 1.0159847 4.066784 1.3685272l1.0552997.2338213-.8209611-.7043091c-1.6812374-1.6023486-2.9331126-3.673633-3.5580156-5.9425275-.1176866-.3121929-.1564844-.6642181-.2353733-.9769283-.1557084-.7436242-.233304-1.5645854-.233304-2.3464901 0-2.1501733.5465315-4.1844705 1.4851793-5.9818426.8602762 1.3292121 1.8377218 2.5415136 2.932078 3.6751849 1.6812374 1.7984067 3.6369044 3.3624748 5.7868191 4.6531478.3132274.1950235.6647354.4298795 1.0170193.5866225l1.915576.9769283c3.2841032 1.4468987 6.9210077 2.2683772 10.7521597 2.307175h.3132275.4689359.0393151l-.1955409-1.290673-.0387977-1.016502.0387977-.5866225c0-.3121929.0382805-.6642181.077337-.9769283.0788888-.7048264.2749469-1.407325.508251-2.0728364z" fill="#010101"/></g></svg>

<?xml version="1.0" encoding="UTF-8" standalone="no"?>
<svg width="80px" height="80px" viewBox="0 0 80 80" version="1.1" xmlns="http://www.w3.org/2000/svg" xmlns:xlink="http://www.w3.org/1999/xlink">
    <!-- Generator: Sketch 3.6.1 (26313) - http://www.bohemiancoding.com/sketch -->
    <title>tweetdeck</title>
    <desc>Created with Sketch.</desc>
    <defs></defs>
    <g id="icons" stroke="none" stroke-width="1" fill="none" fill-rule="evenodd">
        <g id="tweetdeck">
            <path d="M39.2954322,80 L49.6945321,69.5962444 L67.6020382,69.5962444 C73.6632869,69.5962444 78.6291449,64.6324556 78.6291449,58.5329264 L78.6291449,11.0659045 C78.6291449,5.00569034 73.6632869,0 67.6020382,0 L11.0260721,0 C4.96534064,0 0,5.00594899 0,11.0659045 L0,58.533185 C0,64.6327143 4.96534064,69.596503 11.0260721,69.596503 L28.9330609,69.596503 L39.2954322,80 L39.2954322,80 Z" id="Shape" fill="#3BACE2"></path>
            <path d="M41.2954322,19.3706482 C42.0760437,17.650613 43.2883451,16.1651751 44.7735244,15.0312452 L45.5564637,14.4841964 C46.6122808,13.8199783 47.7842326,13.3106927 49.0361078,13.0372976 C49.855517,12.8417568 50.7163106,12.7245875 51.5760695,12.7245875 L51.7335885,12.7245875 L51.813512,12.7245875 C54.9406135,12.7644198 57.7938027,14.1324298 59.7882675,16.2831204 L61.1955926,15.9693756 L61.4309658,15.8915214 C63.2686876,15.384305 65.0652837,14.718535 66.7090166,13.8582588 C65.8875382,16.2831204 64.2458745,18.3544048 62.1332057,19.724484 L62.0553515,19.7627645 L62.1332057,19.7627645 L62.2917594,19.7627645 C64.5195282,19.7627645 66.6301278,19.0980291 68.4295691,17.9253013 C67.2948632,19.6060214 66.0047075,21.0912007 64.5588433,22.4607625 C63.9717035,23.047385 63.3473178,23.5939165 62.6815478,24.1026848 L62.7198283,25.7456417 C62.7198283,42.7535565 49.3881331,56.6721328 32.613781,57.5735347 L29.0557654,57.5735347 C23.6209715,57.2985878 18.576742,55.6569241 14.1975066,52.9571155 C20.1413274,52.9571155 25.6539755,51.0425741 30.1506389,47.7951994 C25.3029848,47.406187 21.1968858,44.28012 19.4372769,39.9376132 L21.8223061,40.0558171 L24.6770472,39.8982981 C22.2139051,39.1950235 20.0637318,37.7478661 18.4603487,35.8320315 C16.778594,33.7998034 15.7232942,31.2590657 15.5277533,28.4821789 C16.8574828,29.0688014 18.1864363,29.4981636 19.5945373,29.8507061 L20.649837,30.0845274 L19.8288759,29.3802183 C18.1476385,27.7778697 16.8957633,25.7065853 16.2708603,23.4376908 C16.1531737,23.1254979 16.1143759,22.7734727 16.035487,22.4607625 C15.8797786,21.7171383 15.802183,20.8961771 15.802183,20.1142724 C15.802183,17.9640991 16.3487145,15.9298019 17.2873623,14.1324298 C18.1476385,15.4616419 19.1250841,16.6739434 20.2194403,17.8076147 C21.9006777,19.6060214 23.8563447,21.1700895 26.0062594,22.4607625 C26.3194868,22.655786 26.6709948,22.890642 27.0232787,23.047385 L28.9388547,24.0243133 C32.2229579,25.471212 35.8598624,26.2926905 39.6910144,26.3314883 L40.0042419,26.3314883 L40.4731778,26.3314883 L40.5124929,26.3314883 L40.316952,25.0408153 L40.2781543,24.0243133 L40.316952,23.4376908 C40.316952,23.1254979 40.3552325,22.7734727 40.394289,22.4607625 C40.4731778,21.7559361 40.6692359,21.0534375 40.90254,20.3879261 L41.2954322,19.3706482 L41.2954322,19.3706482 Z" id="Path" fill="#010101"></path>
        </g>
    </g>
</svg>
